packages/icons/svg/32/LikeOnPrivate.svg

<svg width="32" height="32" viewBox="0 0 32 32" fill="none" xmlns="http://www.w3.org/2000/svg">
<path d="M28 12.5C28 8.63401 24.866 5.5 21 5.5C19.1702 5.5 17.379 6.4144 16 7.82824C14.621 6.4144 12.8298 5.5 11 5.5C7.13401 5.5 4 8.63401 4 12.5C4 18.2695 7.7025 23.1517 14.7796 27.1101C15.4659 27.494 16.2879 27.5305 17 27.2196V24C17 22.511 17.8135 21.2121 19.0204 20.5234C19.2619 17.709 21.623 15.5 24.5 15.5C25.5717 15.5 26.5718 15.8065 27.4174 16.3366C27.8045 15.1049 28 13.8259 28 12.5Z" fill="#858585"/>
<path d="M24.5 19.5C23.6716 19.5 23 20.1716 23 21V22H26V21C26 20.1716 25.3284 19.5 24.5 19.5Z" fill="white"/>
<path fill-rule="evenodd" clip-rule="evenodd" d="M32 24C32 22.511 31.1865 21.2121 29.9796 20.5234C29.7381 17.709 27.377 15.5 24.5 15.5C21.623 15.5 19.2619 17.709 19.0204 20.5234C17.8135 21.2121 17 22.511 17 24V28C17 30.2091 18.7909 32 21 32H28C30.2091 32 32 30.2091 32 28V24ZM30 24C30 22.8954 29.1046 22 28 22V21C28 19.067 26.433 17.5 24.5 17.5C22.567 17.5 21 19.067 21 21V22C19.8954 22 19 22.8954 19 24V28C19 29.1046 19.8954 30 21 30H28C29.1046 30 30 29.1046 30 28V24Z" fill="white"/>
<path fill-rule="evenodd" clip-rule="evenodd" d="M28 22C29.1046 22 30 22.8954 30 24V28C30 29.1046 29.1046 30 28 30H21C19.8954 30 19 29.1046 19 28V24C19 22.8954 19.8954 22 21 22V21C21 19.067 22.567 17.5 24.5 17.5C26.433 17.5 28 19.067 28 21V22ZM23 21C23 20.1716 23.6716 19.5 24.5 19.5C25.3284 19.5 26 20.1716 26 21V22H23V21Z" fill="#1F1F1F"/>
</svg>

<svg width="32" height="32" viewBox="0 0 32 32" fill="none" xmlns="http://www.w3.org/2000/svg"><path d="M28 12.5a7 7 0 00-7-7c-1.83 0-3.621.914-5 2.328C14.621 6.414 12.83 5.5 11 5.5a7 7 0 00-7 7c0 5.77 3.702 10.652 10.78 14.61a2.5 2.5 0 002.22.11V24c0-1.489.814-2.788 2.02-3.477a5.5 5.5 0 018.397-4.186c.387-1.232.583-2.511.583-3.837z" fill="currentColor"/><path d="M24.5 19.5A1.5 1.5 0 0023 21v1h3v-1a1.5 1.5 0 00-1.5-1.5z" fill="#fff"/><path fill-rule="evenodd" clip-rule="evenodd" d="M32 24a3.998 3.998 0 00-2.02-3.477 5.5 5.5 0 00-10.96 0A3.998 3.998 0 0017 24v4a4 4 0 004 4h7a4 4 0 004-4v-4zm-2 0a2 2 0 00-2-2v-1a3.5 3.5 0 10-7 0v1a2 2 0 00-2 2v4a2 2 0 002 2h7a2 2 0 002-2v-4z" fill="#fff"/><path fill-rule="evenodd" clip-rule="evenodd" d="M28 22a2 2 0 012 2v4a2 2 0 01-2 2h-7a2 2 0 01-2-2v-4a2 2 0 012-2v-1a3.5 3.5 0 117 0v1zm-5-1a1.5 1.5 0 013 0v1h-3v-1z" fill="#1F1F1F"/></svg>
